!!!COA: Josquin des Prez
!!!CDT: ~1450-1521/08/27
!!!OTL: N'esse pas ung grant deplaisir
!!!AGN: Chanson
!!!SCT: NJE 29.17
!!!SCA: New Josquin Edition 29.17
!!!voices: 5
**kern	**kern	**kern	**kern	**kern
*staff5	*staff4	*staff3	*staff2	*staff1
*Ivox	*Ivox	*Ivox	*Ivox	*Ivox
*I"Bassus	*I"Contratenor	*I"Quintus	*I"Tenor	*I"Superius
*I'B	*I'Ct	*I'Q	*I'T	*I'S
*clefF4	*clefF4	*clefGv2	*clefGv2	*clefG2
*k[]	*k[]	*k[]	*k[]	*k[]
*M2/1	*M2/1	*M2/1	*M2/1	*M2/1
*met(C|)	*met(C|)	*met(C|)	*met(C|)	*met(C|)
=1-	=1-	=1-	=1-	=1-
!	!	!	!LO:TX:Z=10:t=Fuga a la cincquiesme Partie [canon at the unison]	!
1r	0r	0r	0r	1a
1A	.	.	.	2a/
.	.	.	.	2a/
=2	=2	=2	=2	=2
2A\	0r	0r	0r	1cc
2A\	.	.	.	.
2G\	.	.	.	2b\
2F\	.	.	.	[2a/
=3	=3	=3	=3	=3
1D	1r	0r	1A	4a/]
.	.	.	.	4g/
.	.	.	.	4f/
.	.	.	.	4e/
1D	1A	.	2A/	2f/
.	.	.	2A/	2f/
=4	=4	=4	=4	=4
1AA	2A\	0r	1c	2e/
.	2A\	.	.	2c/
1r	2G\	.	2B\	2d/
.	2F\	.	[2A/	[2f/
=5	=5	=5	=5	=5
1r	1D	1A	4A/]	4f/]
.	.	.	4G/	4e/
.	.	.	4F/	4d/
.	.	.	4E/	4c/
2r	1D	2A/	2F/	4d/
.	.	.	.	4e/
2A\	.	2A/	2F/	4f/
.	.	.	.	4d/
=6	=6	=6	=6	=6
2A\	2AA/	1c	1E	2e/
2A\	2A\	.	.	2c/
2G\	2B\	2B\	1r	2d/
2F\	2c\	[2A/	.	[2f/
=7	=7	=7	=7	=7
1D	2d\	4A/]	0r	4f/]
.	.	4G/	.	4e/
.	2d\	4F/	.	4d/
.	.	4E/	.	4c/
1D	2.A\	2F/	.	4d/
.	.	.	.	4e/
.	.	2F/	.	4f/
.	4B\	.	.	4d/
=8	=8	=8	=8	=8
0AA	1c	1E	2r	1e
.	.	.	2e\	.
.	2r	1r	2e\	2r
.	2A\	.	2e\	2cc\
=9	=9	=9	=9	=9
0r	2A\	0r	1.e	2cc\
.	2G\	.	.	2b\
.	2A\	.	.	2cc\
.	2G\	.	2d\	[2b\
=10	=10	=10	=10	=10
2r	2.c\	2r	2c\	4b\]
.	.	.	.	4a/
2AA/	.	2e\	2A/	1a
.	4d\	.	.	.
2E\	2e\	2e\	1B	.
2E\	2B\	2e\	.	2g#i/
=11	=11	=11	=11	=11
4AA/	2c\	1.e	1A	2a/
4BB/	.	.	.	.
4C/	2c\	.	.	4e/
4D\	.	.	.	4f/
4E\	2c\	.	1r	4g/
4F\	.	.	.	4a/
2G\	2B\	2d\	.	[2b\
=12	=12	=12	=12	=12
2A\	2.c\	2c\	0r	4b\]
.	.	.	.	4a/
2F\	.	2A/	.	1a
.	4d\	.	.	.
1E	1e	1B	.	.
.	.	.	.	2g#i/
=13	=13	=13	=13	=13
1AA	0c	1A	0r	2a/
.	.	.	.	2a/
2r	.	1r	.	2a/
2A\	.	.	.	2a/
=14	=14	=14	=14	=14
2A\	0r	0r	0r	1cc
2A\	.	.	.	.
2G\	.	.	.	2b\
2F\	.	.	.	[2a/
=15	=15	=15	=15	=15
1D	1r	0r	2r	4a/]
.	.	.	.	4g/
.	.	.	2A/	4f/
.	.	.	.	4e/
1D	2r	.	2A/	2f/
.	2A\	.	2A/	2f/
=16	=16	=16	=16	=16
1AA	2A\	0r	1c	2e/
.	2A\	.	.	2c/
1r	2G\	.	2B\	2d/
.	2F\	.	[2A/	[2f/
=17	=17	=17	=17	=17
1r	1D	2r	4A/]	4f/]
.	.	.	4G/	4e/
.	.	2A/	4F/	4d/
.	.	.	4E/	4c/
2r	1D	2A/	2F/	4d/
.	.	.	.	4e/
2A\	.	2A/	2F/	4f/
.	.	.	.	4d/
=18	=18	=18	=18	=18
2A\	2AA/	1c	1E	2e/
2A\	2A\	.	.	2c/
2G\	2B\	2B\	1r	2d/
2F\	2c\	[2A/	.	[2f/
=19	=19	=19	=19	=19
1D	2d\	4A/]	0r	4f/]
.	.	4G/	.	4e/
.	2d\	4F/	.	4d/
.	.	4E/	.	4c/
1D	2.A\	2F/	.	4d/
.	.	.	.	4e/
.	.	2F/	.	4f/
.	4B\	.	.	4d/
=20	=20	=20	=20	=20
0AA	1c	1E	2r	1e
.	.	.	2e\	.
.	2r	1r	2e\	2r
.	2A\	.	2e\	2cc\
=21	=21	=21	=21	=21
0r	2A\	0r	1.e	2cc\
.	2G\	.	.	2b\
.	2A\	.	.	2cc\
.	2G\	.	2d\	[2b\
=22	=22	=22	=22	=22
2r	2.c\	2r	2c\	4b\]
.	.	.	.	4a/
2AA/	.	2e\	2A/	1a
.	4d\	.	.	.
2E\	2e\	2e\	1B	.
2E\	2B\	2e\	.	2g#i/
=23	=23	=23	=23	=23
4AA/	2c\	1.e	1A	2a/
4BB/	.	.	.	.
4C/	2c\	.	.	4e/
4D\	.	.	.	4f/
4E\	2c\	.	1r	4g/
4F\	.	.	.	4a/
2G\	2B\	2d\	.	[2b\
=24	=24	=24	=24	=24
2A\	2c\	2c\	0r	4b\]
.	.	.	.	4a/
2F\	2d\	2A/	.	1a
1E	1e	1B	.	.
.	.	.	.	2g#i/
=25	=25	=25	=25	=25
0AA	2r	1A	2r	1a
.	2E\	.	2c\	.
.	2F\	1r	2c\	2r
.	2E\	.	2c\	2a/
=26	=26	=26	=26	=26
0r	2F\	0r	1.c	2a/
.	2E\	.	.	2g/
.	2F\	.	.	2a/
.	2G\	.	2B\	[2g/
=27	=27	=27	=27	=27
2r	2.A\	2r	2A/	4g/]
.	.	.	.	4f/
2FF/	.	2c\	2F/	1f
.	4B\	.	.	.
2C/	2c\	2c\	1G	.
2C/	2G\	2c\	.	2e/
=28	=28	=28	=28	=28
4FF/	2A\	1.c	1F	2f/
4GG/	.	.	.	.
4AA/	2A\	.	.	4c/
4BB/	.	.	.	4d/
4C/	2A\	.	1r	4e/
4D\	.	.	.	4f/
2E\	2G\	2B\	.	[2g/
=29	=29	=29	=29	=29
2F\	2A\	2A/	0r	4g/]
.	.	.	.	4f/
2D\	2B\	2F/	.	1f
1C	1c	1G	.	.
.	.	.	.	2e/
=30	=30	=30	=30	=30
2FF/	2A\	1F	2r	1f
2F\	2D\	.	2A/	.
2D\	2F\	1r	2A/	1r
2F\	2D\	.	2A/	.
=31	=31	=31	=31	=31
2D\	4F\	0r	1.A	0r
.	4G\	.	.	.
1F	4A\	.	.	.
.	4B\	.	.	.
.	4c\	.	.	.
.	4d\	.	.	.
2C/	[2e\	.	2G/	.
=32	=32	=32	=32	=32
1D	4e\]	2r	2F/	1r
.	4d\	.	.	.
.	1d	2A/	2D/	.
1AA	.	2A/	1E	2r
.	2c#i\	2A/	.	2e/
=33	=33	=33	=33	=33
2D\	3.d\V	1.A	1D	2f/
2F\	6A\	.	.	2f/
.	3d\Z	.	.	.
2F\	3.c\V	.	1r	2f/
2C/	6B\	2G/	.	[2e/
.	3c\Z	.	.	.
=34	=34	=34	=34	=34
2D\	3.A\V	2F/	0r	4e/]
.	.	.	.	4d/
2BB/	6F\	2D/	.	1d
.	3G\Z	.	.	.
1AA	3.A\V	1E	.	.
.	6G\	.	.	2c#i/
.	3E\Z	.	.	.
=35	=35	=35	=35	=35
0D	1F	1D	2r	1d
.	.	.	2d\	.
.	1r	1r	2d\	2r
.	.	.	2d\	2a/
=36	=36	=36	=36	=36
0r	2D\	0r	1.f	2a/
.	2F\	.	.	2a/
.	2F\	.	.	2.cc\
.	2C/	.	2e\	.
.	.	.	.	4cc\
=37	=37	=37	=37	=37
0r	2G\	2r	2.d\	2b\
.	2D\	2d\	.	2a/
.	.	.	4c\	.
.	1G	2d\	1B	2g/
.	.	2d\	.	2g/
=38	=38	=38	=38	=38
2D\	2.F\	1.f	0A	2a/
2F\	.	.	.	2a/
.	4G\	.	.	.
2F\	4A\	.	.	1cc
.	4B\	.	.	.
2C/	2c\	2e\	.	.
=39	=39	=39	=39	=39
2G\	2d\	2.d\	0r	2b\
2D\	2f\	.	.	2.a/
.	.	4c\	.	.
1E	1e	1B	.	.
.	.	.	.	4g#i/
.	.	.	.	4g#i/
.	.	.	.	4f#i/
=40	=40	=40	=40	=40
1AA	1c	[0Al	1r	1a
2r	2r	.	2r	2r
2AA/	2c\	.	2e\	2a/
=41	=41	=41	=41	=41
2D\	2d\	0A_	2f\	2a/
2AA/	2c\	.	2e\	2cc\
2D\	2d\	.	2f\	2a/
2AA/	2c\	.	2e\	2cc\
=42	=42	=42	=42	=42
1D	1d	0A_	1f	1a
1D	1d	.	1f	2.a/
.	.	.	.	4b\
=43	=43	=43	=43	=43
0AAl	0cl	0A]	0el	0ccl
==	==	==	==	==
*-	*-	*-	*-	*-
!!!RDF**kern: V=start of tuplet marker
!!!RDF**kern: Z=end of tuplet marker
!!!RDF**kern: l=long note in original notation
!!!RDF**kern: i=editorial accidental
!!!ENC: Will Watson 09/12/2011
!!!END: 2011/12/09/
!!!EED: Jesse Rodin
!!!EEV: 2012/01/22/
!!attribution-level@Jos: 3 (tricky)
!!!ONB: Translated from MusicXML and edited on 2012/01/22/ by Craig Sapp
!!muse2ps:  C^@{COA}?\n@{SCT}^i2I100v90,90,90,90,90,130Q16
